cps 0.5

d2 $ slow 16 . chop 128 $ sound "believe"
 |+| cut "1"
 |+| speed (((*2) <$>) $ every 8 ((*0.666) <$>) $ every 2 ((*0.2) <$>) $ every 7 ((*0.5) <$>) $ every 4 ((/2) <$>) $ every 14 ((*0.5) <$>) $ iter 4 "1 2 0.5 1 0.7 0.5 0.2 9")


hush
