bps 2

d1 $ every 7 ((0.25 <~) . slow 2) $ every 5 (density 2) $ rev . striate 2 . density 2 $ sound "bass3 bass3 !?"
 |+| speed ( every 2 ( (*4) <$>) $ every 4 ( (*2) <$>) $ every 3 ( (*3) <$>) $ iter 4 "0.5 2 0.9 1")
 |+| vowel "a"
 |+| gain sinewave1

d2 $ every 9 (echo (7/4)) $ every 8 (rev) $ every 4 (density 2) $ slow 2 $ sound "akai akai:1 akai:2 akai:1"

d3 $ every 4 (striate 8) $ every 8 (density 2) $ stack[sound "dr", sound "dr2/4"]

hush
