bps 1.5

d1 $ every 2 (rev) . spread' striate "2 4" . density 2 $ sound "~ mattel:5 ~"
 |+| speed (((*0.8) <$>) $ every 4 ((*2) <$>) $ every 8 ((*2.9) <$>) $ "2")

d2 $ every 16 (striate 2) . spread' striate "4 2 1" $ sound "~ odx:2 odx:2*2 ~"
 |+| speed "1.2"


hush
