
bps (140/60)

cps 0.7

d3 $ chop 4 . spread' striate (every 3 (rev) "4 2 2") $ sound "unix sn:1"
 |+| speed (((*2) <$>) $ every 3 ((*3) <$>) $ every 13 ((0.5-) <$>) "2")

d4 $ echo (3/3) $ every 3 (rev) .  stut 4 0.5 0.5 . every 8 (striate 2)  . spread' striate (every 3 (rev) "4 2 2") $ every 2 (chop 8) $ chop 8 $ density 4  $ sound "lsdj:5?"
 |+| speed (every 2 ((*2) <$>) $ every 3 ((0.1-) <$>) $ iter 4 "1 1.25 1.3") 

hush
