cps 1

d1 $ spread' chop "4 4 4 8" . stut 3 0.5 0.5 . density 2 $ sound "visco ~ [ visco:4 ~ visco:4] bd:8?"
 |+| speed "[0.5 0.8] [1 2]"

d3 $ spread' chop "4 4 4 8" . stut 3 0.5 0.5 . density 2 $ sound "sid:2 ~ sid:4"
 |+| speed "[0.5 0.8] [1 2]"


cps 0.6

solo $ d1 $ revArc(0,0.1) . (0.1<~) . stut 2 0.9 0.9 . chop 2 . spread' density "2 4 2" $ sound "amen"
 |+| cut "1"
 |+| speed "0.9"



hush
