bps 0.666

d2 $ spread' density "2 1 3" $ sound "unix unix:1 unix unix:1"

d4 $ spread' density "2 3 1" $ sound "unix:2 unix:2 unix:2? unix:2"
 |+| speed (iter 4 "1.5 1 1.2 0.9")

d5 $ stut 2 0.5 0.5 . density 2 $ sound "~ unix:3"

d6 $ striate' 2 (0.5) $ sound "unix:4 ~ ~ unix:4"
 |+| speed (slow 8 "1.5 1 1.2 0.9")
$
