bps 0.7

d1 $ every 19 (|+| speed "2") $ every 16 (|+| accelerate "-5") $ every 13 (density 2) $ palindrome $ every 11 (iter 2) $ sound "deepsky deepsky:2 deepsky*2 deepsky:4"
 |+| speed (every 4 (rev) "1 0.8 0.5 0.1")
 |+| gain "1.3"

d2 $ every 4 (striate 4) $ sound "minipops:5*2 ~"
 |+| gain "1.2"

d3 $ sound "~ breath/15"
 |+| speed "0.3"
 |+| gain "1.5"



hush
